X: 1212
T: The Wallking of the Plaidding
%R: strathspey
B: Niel Gow & Sons "A Collection of Strathspey Reels, etc." v.1 p.21 #1
Z: 2022 John Chambers <jc:trillian.mit.edu>
M: C
L: 1/8
K: F
% - - - - - - - - - -
V: 1 staves=2
(A |\
TF)>CC>D TF>CC>D | TF>CC>D G2G>A | F<C-C>D F>GA>d | Tc>AG>A F2F :: (e | f)>c d/c/B/A/ f>cf<a |
f>c f/g/a/f/ Tg2d>e |1 f<af<c d<fTd>c | A>cG>A F2F :|2 f/(e/f/a/) f.c (d/c/d/f/ d).c | A<cG>A F2F |]
% - - - - - - - - - -
% Voice 2 preserves the staff layout in the book.
N: The bass e2 note in bar 5 slightly overlaps (and might be) the f line.
V: 2 clef=bass middle=d
z |\
f2f2 f2f2 | f2f2 g2g2 | f2f2 F2F2 | c2c2 f2f :: z | f2e2 f2f2 |
f2f2 g2g2 |1 f2f2 B2B2 | f2c2 F2F :| f2f2 b2b2 | c'2c2 f2f |]


